X: 7766
T: Comb Your Hair And Curl It
R: slip jig
M: 9/8
K: Edorian
|:B2E E2F G2A|B2e ece dBA|B2E E2F G2A|B=cB ABG FED:|
g2e efe e2f|g3 efg afd|g2e efe e2c|d2B ABG FED|
g2e efe e2f|g3 efg afd|gfg afd g2e|d2B ABG FED||

